!!!OTL: Kuangfeng chuibugan honghushui
!!!ARE: Asia, China,ÿHubei Honghu
!! I, 421
!!!SCT: C2163
!!!YEM: Copyright 1995, estate of Helmut Schaffrath.
**kern
*ICvox
*Ivox
*M2/4
*k[f#c#]
*D:
{8.a
16a
8b
16dd
16b
=1
8.a
16b
8.a
16f#
=2
8a
16b
16dd
16b
16a
8f#
=3
8.e
16d
4e}
=4
{8b
16b
16dd
8ee
16ee
16dd
=5
8b
16dd
16b
8a
8f#
=6
8a
16b
16dd
16b
16a
8f#
=7
4ee
4ff#
=8
2ee}
==
!!!AGN: Xiaodiao
!!!ONB: ESAC (Essen Associative Code) Database: SENGANSU
!!!AMT: simple duple
!!!AIN: vox
!!!EED: Helmut Schaffrath
!!!EEV: 1.0
*-
